build/service/EyeOffSolid.svg

<svg xmlns="http://www.w3.org/2000/svg" fill="none" viewBox="0 0 24 24" focusable="false"><path d="M0 0H24V24H0z"/><path fill="#74767B" fill-rule="evenodd" d="M4.38156 2.20689C4.66608 1.98798 5.07419 2.04117 5.29309 2.32569L8.05337 5.91329C9.21132 5.35851 10.5287 4.99998 11.9998 4.99998C16.7243 4.99998 19.8639 8.6982 21.2266 10.7185C21.7546 11.5014 21.7546 12.4986 21.2266 13.2814C20.4203 14.4769 18.9917 16.2599 16.9808 17.5165L19.5941 20.9131C19.813 21.1976 19.7598 21.6057 19.4753 21.8246C19.1908 22.0435 18.7827 21.9903 18.5638 21.7058L4.26276 3.11842C4.04386 2.8339 4.09705 2.4258 4.38156 2.20689ZM15.2756 15.3002C16.1243 14.4578 16.6498 13.2902 16.6498 12C16.6498 9.43183 14.5679 7.34995 11.9998 7.34995C11.1421 7.34995 10.3387 7.58214 9.64894 7.98709L10.6243 9.25474C11.0197 9.06756 11.4619 8.96287 11.9285 8.96287C13.6142 8.96287 14.9807 10.3294 14.9807 12.0151C14.9807 12.198 14.9646 12.3772 14.9338 12.5512C14.9353 12.5974 14.9306 12.6452 14.9191 12.6939C14.8402 13.027 14.7058 13.3386 14.5262 13.6184C14.447 13.7464 14.3586 13.8682 14.2619 13.9827L15.2756 15.3002ZM5.85386 7.31454C4.44732 8.44757 3.41369 9.76853 2.77296 10.7185C2.24495 11.5014 2.24495 12.4986 2.77296 13.2814C4.1356 15.3018 7.27521 19 11.9998 19C12.9115 19 13.7641 18.8623 14.5564 18.6255L12.9601 16.5507C12.6502 16.6157 12.329 16.65 11.9998 16.65C9.43165 16.65 7.34977 14.5681 7.34977 12C7.34977 11.2464 7.529 10.5348 7.84716 9.90528L5.85386 7.31454Z"/></svg>

<svg xmlns="http://www.w3.org/2000/svg" fill="none" viewBox="0 0 24 24" focusable="false"><path fill="#74767B" fill-rule="evenodd" d="M4.38 2.2c.28-.22.69-.16.91.12l2.76 3.59c1.16-.56 2.47-.92 3.95-.92 4.72 0 7.86 3.7 9.22 5.72.53.79.53 1.78 0 2.57-.8 1.19-2.23 2.97-4.24 4.23l2.61 3.4c.22.28.16.69-.12.91s-.69.17-.91-.12L4.26 3.11a.643.643 0 0 1 .12-.91m10.89 13.1c.85-.85 1.37-2.01 1.37-3.31 0-2.56-2.08-4.65-4.64-4.65-.86 0-1.67.24-2.36.64l.98 1.27c.39-.19.84-.29 1.3-.29 1.69 0 3.06 1.36 3.06 3.05 0 .18-.02.36-.05.54 0 .04 0 .09-.02.14-.07.33-.21.64-.39.92-.08.13-.17.25-.26.37zM5.85 7.31c-1.41 1.13-2.44 2.45-3.08 3.4-.53.79-.53 1.78 0 2.57C4.13 15.3 7.27 19 12 19c.91 0 1.76-.14 2.55-.38l-1.59-2.07c-.31.06-.64.1-.96.1-2.57 0-4.66-2.09-4.66-4.66 0-.75.18-1.46.5-2.09z"/></svg>
